examples/lightroom-to-immich/alpine-dawn.xmp
<?xpacket begin=""?>
<x:xmpmeta xmlns:x="adobe:ns:meta/">
  <rdf:RDF xmlns:rdf="http://www.w3.org/1999/02/22-rdf-syntax-ns#"
           xmlns:xmp="http://ns.adobe.com/xap/1.0/"
           xmlns:dc="http://purl.org/dc/elements/1.1/"
           xmlns:crs="http://ns.adobe.com/camera-raw-settings/1.0/">
    <rdf:Description xmp:Rating="4" xmp:Label="Green" crs:Exposure2012="0.35">
      <dc:description><rdf:Alt><rdf:li xml:lang="x-default">Alpine dawn</rdf:li></rdf:Alt></dc:description>
      <dc:subject><rdf:Bag><rdf:li>mountain</rdf:li><rdf:li>dawn</rdf:li></rdf:Bag></dc:subject>
    </rdf:Description>
  </rdf:RDF>
</x:xmpmeta>
<?xpacket end="w"?>
